X:1
T:Où t'attend ta maistresse
T:Jean de Castro
T:Source : Livre de chansons à 3 parties---Paris---A.le Roy & R.Ballard---1575. Editor : André Vierendeels (23/09/15).
T:Notes : Original clefs : C1, C3, C4 Editorial accidentals above the staff This chanson is the "responce" to the chanson "Comme la tourterelle" (de Castro) Dotted brackets indicate black notes
T:Où t'attend ta maistresse
C:Jean de Castro
%%score [ 1 2 3 ]
L:1/8
Q:1/4=80
M:2/2
K:C
V:1 treble nm="Superius" snm="S"
V:2 treble nm="Altus" snm="A"
V:3 treble-8 nm="Tenor" snm="T"
V:1
 z4 A4- | A4 G4- | G4 D4- | D4 A4- | A2 A2 A4 | F6 ED | E4 c4 | B8 | A8- | A4 d4 | c4 d4 | %11
w: |* t'at-|* tend|_ ta|_ mais- tres-||se, où|t'at-|tend,|_ où|t'at- tend|
 B2 A2 B4 | c2 c2 c2 A2 | G4 G4 | A4 A4- | A4 B4 | c8 | z8 | F8- | F8 | G8 | A4 c4- | c4 A4 | G8 | %24
w: ta mais- tres-|se, a- my, ne|dy doux|port, mais|_ un|lieu,||mais|_|un|lieu de|_ tri-|stes-|
 A4 A4 | G6 A2 | F4 E4 | D4 D4 | A6 A2 | F4 G4 | E4 E4 | F4 E4 | A4 G4 | ^F8 |[M:3/2] A4 c4 G4 | %35
w: se, et|sans au-|cun con-|fort: Or|la tien-|ne con-|fort, or|la tien-|ne con-|fort.|Qui d'en- nuy|
 _B6 A2 G4 |[M:2/2] A4 A4- | A2 G2 A2 B2 | ^c4 d4- | d2 ^cB c4 | d4 D4 | E4 F4 | G4 A4 | G8 | %44
w: n'est plus bel-|le, lan-||||guit, lan-|guit jus-|qu'à la|mort,|
 A4 A2 A2 | G2 F2 E4 | ^F4 A4- | A2 G2 z2 A2 | G4 F4 | E2 D2 E4 | !fermata!^F8 |] %51
w: com- me la|tour- te- rel-|le, com|_ me, com-|me la|tour- te rel-|le.|
V:2
 F8 | E8 | G8- | G4 F4- | F4 E4 | D8 | ^C4 E4- | E4 D4- | D4 A,4 | F6 G2 | A6 GF | ^G2 A2 G4 | %12
w: Où|t'at-|tend|_ ta|_ mais-|tres-|se, où|_ t'at-|* tend|ta mais-|tres- * *||
 A2 A2 E2 F2 | F4 E4 | F4 C4 | D4 E4- | E4 F4- | F2 F2 D4 | D4 z2 C2 | D8- | D4 E4 | F6 F2 | %22
w: se, a- my, ne|dy doux|port, mais|un lieu|_ de|_ tri- stes-|se, mais|un-|_ _|lieu de|
 C4 F4- | F2 ED E4 | F4 z2 F2- | F2 E4 D2 | D4 ^C4 | D4 A4 | F6 E2 | D4 D4 | C4 C4 | C6 B,2 | %32
w: tri- stes-||se, et|_ sans au-|cun con-|fort: Or|la tien-|ne con-|fort, or|la tien-|
 C2 D3 C/B,/ C2 | D8 |[M:3/2]"^-natural" F4 E4 E4 | D6 F2 E4 |[M:2/2] F8- | F4 D4 | E4 F4 | E6 E2 | %40
w: ne con- * * *|fort.|Qui d'en- nuy|n'est plus bel-|le,|_ lan-|guit jus-|qu'à la|
 D2 E2 F2 G2 | A4 A4 | G4 F4 | F4 E4 | F2 F2 F2 F2 | E2 D2 ^C4 |"^-natural" D4 F4 | E4 z2 E2 | %48
w: mort, _ _ _|_ lan-|guit jus-|qu'à la|mort, com- me la|tour- te- rel-|le, com-|me, com-|
 E4 D4 | ^C2 D2 C4 | !fermata!D8 |] %51
w: me la|tour- te- rel-|le.|
V:3
 d8 |"^-natural" c8 | G8 | d8- | d4 A4 | _B8 | A4 A4 | G8 | D8 | d6 e2 | f4 d4 | e8 | A2 A2 A2 F2 | %13
w: Où|t'at-|tend|ta|_ mais-|tres|se, où|t'at-|tend|ta mais-|tres- *||se, a- my, ne|
 c4 c4 | F4 F4- | F4 G4 | A8 | _B8- | B4 A4 | _B6 A2 | G8 | F8- | F8 | z8 | z8 | z8 | z4 A4 | %27
w: dy doux|port, mais|_ un|lieu|de|_ tri-|stes- *||se,|_||||or|
 f6 e2 | d4 A4 | _B8 | z4 A4 | A6 G2 | F4 E4 | D8 |[M:3/2] d4 A4 c4 | G6 F2 c4 |[M:2/2] F8 | D8 | %38
w: la tien-|ne con-|fort,|or|la tien-|ne con-|fort.|Qui d'en- nuy|n'est plus bel-|le,||
 A8- | A8 | _B8 | A4 F4 | c8- | c8 | F4 F2 F2 | C2 D2 A4 | D4 z2 d2 | c4 A4 | c4 d4 | A8 | %50
w: guit|_|jus-|qu'à la|mort,|_|com- me la|tour- te- rel-|le, com-|me la|tour- te-|rel-|
 !fermata!D8 |] %51
w: le.|

